!!!OTL: MEI SCHATZ ISCHT E REITER
!!!ARE: Europa, Mitteleuropa, Deutschland; Tirol
!!!SCT: Z0267
!!!YEM: Copyright 1995, estate of Helmut Schaffrath.
**kern
*ICvox
*Ivox
*M3/8
*k[b-]
*F:
{8cc
=1
8a
8cc
8cc
=2
8a
8cc
8cc
=3
8a
8cc
8cc
=4
4cc}
{8cc
=5
8b-
8dd
8dd
=6
8.ff
16ee
8dd
=7
8dd
8cc
8cc
=8
4cc}
{16cc
16dd
=9
8cc
8b-
8b-
=10
8.dd
16cc
8b-
=11
8b-
8a
8a
=12
4a}
{8cc
=13
8cc
4ee
=14
8cc
4ff
=15
8ee
8dd
8ee
=16
4ff}
==
!!!AGN: lyrisches Lied, Romanze
!!!ONB: ESAC (Essen Associative Code) Database: ZUCCAL
!!!AMT: simple triple
!!!AIN: vox
!!!EED: Helmut Schaffrath
!!!EEV: 1.0
*-
